X:246
T:Old Maids of Galway, The
R:reel
Z:transcribed by Dave Marshall
M:C|
K:D
|: B~F3 B2AF | E2DE FAA2 | B~F3 BFAF | E2DE FAdc |
B~F3 B2AF | E2DE FAA2 | BABc dBAF |1 E2DE FDdc :|2 E2DE FDD2 |
|: dfed B2AB | dfed Bee2 | dfed B2AF | E2DE FDD2 |
dfed B2AB | dfed Bee2 | fdec dBAF | E2DE FDD2 :|
